X: 56
M:4/4
L:1/8
K:Gm
|: dcd B2 fe dedc B2 B2| f2 fg c2 c2| f2 fg c2 c2| g2 ga f2 fg| d2 cd B2 B2 |f2 fg d2 cB|  cBAG F2 F2| B2 AB c2 Bc| d2 AB G2 G2:|

